X: 32737
T: Polly Put The Kettle On
R: strathspey
M: 4/4
K: Dmajor
|:f|abag fddf|gfed cAAf|abag fdcd|Bgec d3:|
e|fdge fdfa|Bged cBAg|fdge fdfa|Bgec d2 de|
fdge fdfa|Bged cBAg|fdge afbg|fdec d3||

